X: 11252
M: 3/4
L: 1/8
K: C
|:\
dcBcde | fgfdB2 |
c2c'2c'2 | b6 ::\
c'bc'gaf | g^fga=fg | e2e2a2 | fgegf2 |\
d^cdcd^d | e^dedeg | fefdBd | c4z2 :|\
E2{^d}e2{d}e2 | D2{^d}e2{d}e2 |
=dcBA^GA | ^G2BGE2 |\
E2{^d}e2{d}e2 | D2{^d}e2{d}e2 | =dcBA^GB | A4z2 ::\
"^Dolce."e4d2 | c4G2 | A2AB {d}cB/A/ | A4G2 |\
g2z>gf>f | e2z>ed>d | c2d2B2 | [c4E4]z2 :|


